X: 4702
T: Boys In The Bunkhouse
R: polka
M: 2/4
K: Amajor
|:eA AA|GA Bc|de/d/ cB|Ac e>f|
eA AA|GA Bc|de/d/ cB|BA A2:|
|:ef/g/ aa|ga B2|Bc de|fe ce|
ef/g/ aa|ga B2|Bc/d/ eG|BA A2:|

